Sources/FrostedUI/Resources/Icons.xcassets/linkedin20.imageset/linkedin-20.svg

<svg width="20" height="20" viewBox="0 0 20 20" fill="none" xmlns="http://www.w3.org/2000/svg" data-fui-icon="true">
  <path
    d="M17.6676 1H2.32891C1.59414 1 1 1.58008 1 2.29727V17.6992C1 18.4164 1.59414 19 2.32891 19H17.6676C18.4023 19 19 18.4164 19 17.7027V2.29727C19 1.58008 18.4023 1 17.6676 1ZM6.34023 16.3387H3.66836V7.74648H6.34023V16.3387ZM5.0043 6.57578C4.14648 6.57578 3.45391 5.8832 3.45391 5.02891C3.45391 4.17461 4.14648 3.48203 5.0043 3.48203C5.85859 3.48203 6.55117 4.17461 6.55117 5.02891C6.55117 5.87969 5.85859 6.57578 5.0043 6.57578ZM16.3387 16.3387H13.6703V12.1621C13.6703 11.1672 13.6527 9.88398 12.2816 9.88398C10.893 9.88398 10.682 10.9703 10.682 12.0918V16.3387H8.01719V7.74648H10.5766V8.9207H10.6117C10.9668 8.2457 11.8387 7.53203 13.1359 7.53203C15.8395 7.53203 16.3387 9.31094 16.3387 11.6242V16.3387Z"
    fill="currentColor"
  />
</svg>

<svg xmlns="http://www.w3.org/2000/svg" width="20" height="20" fill="none" data-fui-icon="true" viewBox="0 0 20 20"><path fill="currentColor" d="M17.668 1H2.328C1.595 1 1 1.58 1 2.297V17.7C1 18.416 1.594 19 2.329 19h15.339c.734 0 1.332-.584 1.332-1.297V2.297C19 1.58 18.402 1 17.668 1M6.34 16.339H3.668V7.746H6.34zM5.004 6.576A1.548 1.548 0 1 1 5 3.48a1.548 1.548 0 0 1 .005 3.096m11.335 9.763H13.67v-4.177c0-.995-.017-2.278-1.388-2.278-1.389 0-1.6 1.086-1.6 2.208v4.247H8.017V7.746h2.56v1.175h.035c.355-.675 1.227-1.389 2.524-1.389 2.704 0 3.203 1.779 3.203 4.092z"/></svg>
